icon/ir/facebook-squared.svg

<svg stroke-width="1.5" viewBox="0 0 24 24" fill="none" xmlns="http://www.w3.org/2000/svg" height="1em" width="1em">
  <path d="M21 8V16C21 18.7614 18.7614 21 16 21H8C5.23858 21 3 18.7614 3 16V8C3 5.23858 5.23858 3 8 3H16C18.7614 3 21 5.23858 21 8Z" stroke="currentColor" stroke-linecap="round" stroke-linejoin="round"/>
  <path d="M11 21C11 18 11 15 11 12C11 9.8125 11.5 8 15 8" stroke="currentColor" stroke-linecap="round" stroke-linejoin="round"/>
  <path d="M9 13H11H15" stroke="currentColor" stroke-linecap="round" stroke-linejoin="round"/>
</svg>

<svg width="24" height="24" stroke-width="1.5" fill="none" xmlns="http://www.w3.org/2000/svg"><path d="M21 8v8a5 5 0 0 1-5 5H8a5 5 0 0 1-5-5V8a5 5 0 0 1 5-5h8a5 5 0 0 1 5 5Z" stroke="currentColor" stroke-linecap="round" stroke-linejoin="round"/><path d="M11 21v-9c0-2.188.5-4 4-4M9 13h6" stroke="currentColor" stroke-linecap="round" stroke-linejoin="round"/></svg>
